X:1
T:Win Them One by One
T:Charles Austin Miles, 1915
T:Win Them One by One
T:Public Domain
T:Public Domain
T:Public Domain
C:Charles Austin Miles, 1915
Z:Public Domain
%%score ( 1 2 ) 3
L:1/8
M:4/4
K:F
V:1 treble 
V:2 treble 
V:3 bass 
V:1
 [CFA]2 [CFAc]2 [CFAc]2 [CFA]2 | [CEGB]2 [CFA]2 ([CE]2 [CE]2) | [EGB]2 [EGBd]2 [EGBd]2 [EGB]2 | %3
w: 1.~If to Christ our|on- ly king *|re- deemed we strive|
w: 2.~Side by side we|stand each day, *|are we, but lost|
w: 3.~On- ly cow- ards|dare re- fuse, *|this gift of God|
w: 4.~Not for hope of|great re- ward *|men’s hearts un- to|
 [CFAc]2 [CEGB]2 ([CF]2 [CF]2) | [CFA]2 [CFAc]2 [CFAc]2 [CFA]2 | [CEGc]2 [CEG]2 [CEG]2 ^F>G | %6
w: to bring, Just *|way this may be|done— We must win them|
w: are they; They *|come if we but|dare Speak a word backed|
w: mis- use; Ere *|friend goes to his|grave, Speak a word his|
w: the Lord; Just *|see a saved man|smile Makes the ef- fort|
 [CFA]2 [D^FA]2 [D=F=B]2 [DFB]2 | ([CEG]2 [CEG]2 [CEG]2) |:"^Refrain" [CEB]2 | %9
w: by one. * *|||
w: by prayer. So you|bring * *|one|
w: to save. If you’ll|bring * *|one|
w: worth- while. * *|||
 [A,CA]2 G>F [A,CA]2 G>F | ([CF]2 (3[CF][CF][CF] [CF]2) [A,CF]2 | [A,CA]2 G>F [A,CA]2 G>F | %12
w: |||
w: next to you, And I’ll bring|next * * * * to|In all kinds of wea- ther,|
w: next to you, And I bring|next * * * * to|In ~ ~ ~ ~ ~|
w: |||
 ([CEG]2 (3[CE][CE][CE] [CE]2) [CFA]2 [CEGB]2 B>BBG-GG | [CFAc]2 c>c cA-[C^DA][CDA] | %14
w: ||
w: work * * * * to- ge- ther, And see what * can||
w: ~ * * * * ~ ~ ~ ~ ~ ~ * ~|all we’ll have them all, So win|
w: ||
 [CEG]2 [CEGc]2 [D^FA]2 [D=F=B]2 | ([CEG]2 [CEG]2 [CFA]2) :| BB-[E-G-B][EGA] [CEG]2 [EGBd]2 | %17
w: |||
w: |||
w: them, one by one.|||
w: |||
 [CFA]2 A-A [CFAc]2 [CFA]2 | Gd- [DGd]2 Ac- [CFc]2 | [B,FA]2 [B,CEG]2 [A,CF]4 |] %20
w: |||
w: |||
w: |||
w: |||
V:2
 x8 | x2 G4 x2 | x8 | x2 A4 x2 | x8 | x6 [CE]2 | x8 | c6 |: x2 | x2 [A,C]2 x/ [A,C]2 x3/2 | A6 x2 | %11
w: |Men||one||one||||||
w: |Saved||will||up||the||the one|me;|
w: |Dare||some||soul||the||the one|me,|
w: |Turn||to||well||||||
 x2 [A,C]2 x/ [A,C]2 x3/2 | B6 x2 [CEG]2 [CE]2 [CE]2 x2 | x2 [CFA]2 [CF]2 x2 | x8 | c6 :| %16
w: |||||
w: we’ll all|be done. * *||||
w: ~ ~|~ ~ no time~at|them, win|||
w: |||||
 [EG]2 x6 | c3 [CF]2 x3 | D2 x [CF]2 x3 | x8 |] %20
w: ||||
w: ||||
w: ||||
w: ||||
V:3
 [F,,F,]2 [C,,C,]2 [F,,F,]2 [C,,C,]2 | [E,,E,]2 [C,,C,]2 ([E,,E,]2 [C,,C,]2) | %2
 [E,,E,]2 [C,,C,]2 [E,,E,]2 [C,,C,]2 | [F,,F,]2 [C,,C,]2 ([F,,F,]2 [C,,C,]2) | %4
 [F,,F,]2 [C,,C,]2 [F,,F,]2 [C,,C,]2 | [E,,E,]2 [C,,C,]2 [E,,E,]2 [C,,C,]2 | %6
 [F,,F,]2 [D,,D,]2 [G,,G,]2 [G,,G,]2 | ([C,,C,]2 [B,,B,]2 [A,,A,]2) |: [G,,G,]2 | %9
 [F,,F,]2 [C,,C,]2 [F,,F,]2 [C,,C,]2 | ([F,,F,]2 [C,,C,]2 [F,,F,]2) [C,,C,]2 | %11
 [F,,F,]2 [C,,C,]2 [F,,F,]2 [C,,C,]2 | %12
 ([E,,E,]2 [C,,C,]2 [E,,E,]2) [C,,C,]2 [E,,E,]2 [C,,C,]2 [E,,E,]2 [C,,C,]2 | %13
 [F,,F,]2 [C,,C,]2 [F,,F,]2 [^F,,^F,]2 | [G,,G,]2 [C,,C,]2 [D,,D,]2 [G,,G,]2 | %15
 ([C,,C,]2 [B,,B,]2 [A,,A,]2) :| [E,,E,]2 [C,,C,]2 [E,,E,]2 [C,,C,]2 | %17
 [F,,F,]2 [C,,C,]2 [F,,F,]2 [F,,F,]2 | [B,,B,]2 [B,,B,]2 [F,,F,]2 [F,,F,]2 | %19
 [C,,C,]2 [C,,C,]2 [F,,F,]4 |] %20

